X: 20681
Q: "March"
M: 2/4
L: 1/16
K: D
V: 1
|:!f!\
d2d>d f2f>f | (a3g) .f4 | d'c'ba gfed | e2A>A .A4 |\
d2d>d f2f>f | (a3g) .f4 | (a2bc') (d'agf) | e2e>e e4 :|
|:\
!f!.e2 !p!(c>A) !f!.e2 !p!(c>A) | .d2.f2 .a4 | !f!.e2 !p!c>A !f!.e2 !p!c>A| !f!.d2.f2 .a4 |\
d'3c' bagf | e3f gabg | a3g f2{f/}ed/e/ | d2d>d d4 :|
V: 2
bagf edcd | c2A>A .A4 | F2F>F d2d>d |
(f3e) .d4 | (f2ge) (ffed) | c2c>c c4 :||:
.F2.d2 .f4 | b3a gfed | c3d efge |
f3e d2{d/}cB/c/ | d2F>F F4 :|



